X:133
T:Kishkeam Lasses, The
T:Rural Felicity
R:slide
H:See also #105, #134, #17
Z:id:hn-slide-133
M:6/8
L:1/8
K:D
dcd e2d | c2E EFG | ~A3 ABG | F2D DFA |
d2d ded | c2E EFG | ABA GFE |1 D3 DFA :|2 D3 D2e ||
|: f2d d2c | d2f agf | e2A A2c | e2f gfe |
f2d d2c | d2f agf | e2A ABc |1 d3 d2e :|2 d3 ABc ||

